azure-patterns/svg-circles-ramp-blue.svg

<svg xmlns="http://www.w3.org/2000/svg" viewBox="0 0 73 73">
                                
                            
  <path d="M54.0204 16.0968C58.2014 16.0968 61.5993 12.6989 61.5993 8.51785C61.5993 4.3368 58.2014 0.938904 54.0204 0.938904C49.8393 0.938904 46.4414 4.3368 46.4414 8.51785C46.4414 12.7115 49.8267 16.0968 54.0204 16.0968Z" fill="#50E6FF"></path>
  <path d="M46.4413 37.6842C49.5739 37.6842 52.1255 35.1452 52.1255 31.9999C52.1255 28.8673 49.5866 26.3157 46.4413 26.3157C43.3087 26.3157 40.7571 28.8547 40.7571 31.9999C40.7571 35.1452 43.296 37.6842 46.4413 37.6842Z" fill="#0078D4"></path>
  <path d="M26.6729 56.8335C28.2392 56.8335 29.515 55.5577 29.515 53.9914C29.515 52.4251 28.2392 51.1493 26.6729 51.1493C25.1066 51.1493 23.8308 52.4251 23.8308 53.9914C23.8308 55.5577 25.1066 56.8335 26.6729 56.8335Z" fill="#0078D7"></path>
  <path d="M36.3361 50.5813C38.4329 50.5813 40.1256 48.8886 40.1256 46.7918C40.1256 44.695 38.4329 43.0023 36.3361 43.0023C34.2393 43.0023 32.5466 44.695 32.5466 46.7918C32.5466 48.8886 34.2393 50.5813 36.3361 50.5813Z" fill="#0078D4"></path>
  <path d="M17.6035 60.7115C18.6519 60.7115 19.4982 59.8652 19.4982 58.8167C19.4982 57.7683 18.6519 56.922 17.6035 56.922C16.5551 56.922 15.7087 57.7683 15.7087 58.8167C15.7087 59.8652 16.5677 60.7115 17.6035 60.7115Z" fill="#0078D7"></path>
  <path d="M9.06441 62.9474C10.1128 62.9474 10.9592 62.1011 10.9592 61.0526C10.9592 60.0042 10.1128 59.1579 9.06441 59.1579C8.01599 59.1579 7.16968 60.0042 7.16968 61.0526C7.16968 62.1011 8.01599 62.9474 9.06441 62.9474Z" fill="#0078D7"></path>
  <path d="M65.3759 0.951416C65.3759 36.5219 36.5507 65.3598 0.967529 65.3598V72.9388H72.9549V0.951416H65.3759Z" fill="#0078D4"></path>
</svg>

<svg xmlns="http://www.w3.org/2000/svg" viewBox="0 0 73 73"><path d="M54.02 16.097a7.585 7.585 0 0 0 7.58-7.58A7.585 7.585 0 0 0 54.02.94a7.585 7.585 0 0 0-7.579 7.579 7.569 7.569 0 0 0 7.58 7.579z" fill="#50E6FF"/><path d="M46.441 37.684A5.685 5.685 0 1 0 40.757 32a5.677 5.677 0 0 0 5.684 5.684z" fill="#0078D4"/><path d="M26.673 56.834a2.846 2.846 0 0 0 2.842-2.843 2.846 2.846 0 0 0-2.842-2.842 2.846 2.846 0 0 0-2.842 2.842 2.846 2.846 0 0 0 2.842 2.843z" fill="#0078D7"/><path d="M36.336 50.581a3.784 3.784 0 0 0 3.79-3.79 3.784 3.784 0 0 0-3.79-3.789 3.784 3.784 0 0 0-3.79 3.79 3.784 3.784 0 0 0 3.79 3.79z" fill="#0078D4"/><path d="M17.604 60.712a1.892 1.892 0 0 0 1.894-1.895 1.892 1.892 0 0 0-1.895-1.895 1.892 1.892 0 0 0-1.894 1.895 1.9 1.9 0 0 0 1.895 1.895zM9.064 62.947a1.892 1.892 0 0 0 1.895-1.894 1.892 1.892 0 0 0-1.895-1.895 1.892 1.892 0 0 0-1.894 1.895c0 1.048.846 1.894 1.894 1.894z" fill="#0078D7"/><path d="M65.376.951c0 35.57-28.825 64.409-64.408 64.409v7.579h71.987V.95h-7.58z" fill="#0078D4"/></svg>
